;FLAVOR:Marlin
;TIME:2816
;Filament used: 1.77148m
;Layer height: 0.1
;MINX:62.2
;MINY:62.2
;MINZ:0.3
;MAXX:137.8
;MAXY:137.8
;MAXZ:5
;Generated with Cura_SteamEngine 4.13.1
M140 S60
M105
M190 S60
M104 S200
M105
M109 S200
M82 ;absolute extrusion mode
G21 ;metric values
G90 ;absolute positioning
M82 ;set extruder to absolute mode
M107 ;start with the fan off
G28 X0 Y0 ;move X/Y to min endstops
G28 Z0 ;move Z to min endstops
G1 Z15.0 F9000 ;move the platform down 15mm
G92 E0 ;zero the extruded length
G1 F200 E3 ;extrude 3mm of feed stock
G92 E0 ;zero the extruded length again
G1 F9000
;Put printing message on LCD screen
M117 Printing...
G92 E0
G92 E0
G1 F1500 E-6.5
;LAYER_COUNT:48
;LAYER:0
M107
G0 F3600 X64.623 Y64.349 Z0.3
;TYPE:SKIRT
G1 F1500 E0
G1 F1800 X65.222 Y63.834 E0.03941
G1 X65.87 Y63.383 E0.0788
G1 X66.561 Y62.999 E0.11824
G1 X67.286 Y62.687 E0.15762
G1 X68.039 Y62.45 E0.197
G1 X68.813 Y62.291 E0.23642
G1 X69.598 Y62.21 E0.27579
G1 X70 Y62.2 E0.29586
G1 X130 Y62.2 E3.28927
G1 X130.789 Y62.24 E3.32868
G1 X131.569 Y62.359 E3.36805
G1 X132.334 Y62.557 E3.40747
G1 X133.074 Y62.831 E3.44684
G1 X133.783 Y63.179 E3.48624
G1 X134.454 Y63.597 E3.52568
G1 X135.078 Y64.08 E3.56505
G1 X135.651 Y64.623 E3.60443
G1 X136.166 Y65.222 E3.64385
G1 X136.617 Y65.87 E3.68323
G1 X137.001 Y66.561 E3.72267
G1 X137.313 Y67.286 E3.76205
G1 X137.55 Y68.039 E3.80143
G1 X137.709 Y68.813 E3.84086
G1 X137.79 Y69.598 E3.88023
G1 X137.8 Y70 E3.90029
G1 X137.8 Y130 E6.8937
G1 X137.76 Y130.789 E6.93312
G1 X137.641 Y131.569 E6.97248
G1 X137.443 Y132.334 E7.0119
G1 X137.169 Y133.074 E7.05127
G1 X136.821 Y133.783 E7.09068
G1 X136.403 Y134.454 E7.13012
G1 X135.92 Y135.078 E7.16948
G1 X135.377 Y135.651 E7.20887
G1 X134.778 Y136.166 E7.24828
G1 X134.13 Y136.617 E7.28767
G1 X133.439 Y137.001 E7.32711
G1 X132.714 Y137.313 E7.36648
G1 X131.961 Y137.55 E7.40587
G1 X131.187 Y137.709 E7.44529
G1 X130.402 Y137.79 E7.48466
G1 X130 Y137.8 E7.50472
G1 X70 Y137.8 E10.49814
G1 X69.211 Y137.76 E10.53755
G1 X68.431 Y137.641 E10.57691
G1 X67.666 Y137.443 E10.61634
G1 X66.926 Y137.169 E10.65571
G1 X66.217 Y136.821 E10.69511
G1 X65.546 Y136.403 E10.73455
G1 X64.922 Y135.92 E10.77392
G1 X64.349 Y135.377 E10.8133
G1 X63.834 Y134.778 E10.85271
G1 X63.383 Y134.13 E10.8921
G1 X62.999 Y133.439 E10.93154
G1 X62.687 Y132.714 E10.97092
G1 X62.45 Y131.961 E11.0103
G1 X62.291 Y131.187 E11.04972
G1 X62.21 Y130.402 E11.0891
G1 X62.2 Y130 E11.10916
G1 X62.2 Y70 E14.10257
G1 X62.24 Y69.211 E14.14198
G1 X62.359 Y68.431 E14.18135
G1 X62.557 Y67.666 E14.22077
G1 X62.831 Y66.926 E14.26014
G1 X63.179 Y66.217 E14.29954
G1 X63.597 Y65.546 E14.33898
G1 X64.08 Y64.922 E14.37835
G1 X64.623 Y64.349 E14.41774
G0 F3600 X65.016 Y64.53
G1 F1800 X65.611 Y64.042 E14.45613
G1 X66.253 Y63.619 E14.49449
G1 X66.936 Y63.264 E14.53289
G1 X67.651 Y62.983 E14.57122
G1 X68.393 Y62.777 E14.60963
G1 X69.151 Y62.649 E14.64799
G1 X70 Y62.6 E14.69041
G1 X130 Y62.6 E17.68383
G1 X130.768 Y62.64 E17.72219
G1 X131.528 Y62.759 E17.76057
G1 X132.271 Y62.957 E17.79893
G1 X132.99 Y63.231 E17.83732
G1 X133.676 Y63.578 E17.87568
G1 X134.323 Y63.994 E17.91405
G1 X134.923 Y64.475 E17.95242
G1 X135.47 Y65.016 E17.9908
G1 X135.958 Y65.611 E18.02919
G1 X136.381 Y66.253 E18.06755
G1 X136.736 Y66.936 E18.10595
G1 X137.017 Y67.651 E18.14428
G1 X137.223 Y68.393 E18.1827
G1 X137.351 Y69.151 E18.22105
G1 X137.4 Y70 E18.26348
G1 X137.4 Y130 E21.25689
G1 X137.36 Y130.768 E21.29526
G1 X137.241 Y131.528 E21.33363
G1 X137.043 Y132.271 E21.372
G1 X136.769 Y132.99 E21.41038
G1 X136.422 Y133.676 E21.44874
G1 X136.006 Y134.323 E21.48711
G1 X135.525 Y134.923 E21.52548
G1 X134.984 Y135.47 E21.56386
G1 X134.389 Y135.958 E21.60225
G1 X133.747 Y136.381 E21.64061
G1 X133.064 Y136.736 E21.67901
G1 X132.349 Y137.017 E21.71734
G1 X131.607 Y137.223 E21.75576
G1 X130.849 Y137.351 E21.79411
G1 X130 Y137.4 E21.83654
G1 X70 Y137.4 E24.82995
G1 X69.232 Y137.36 E24.86832
G1 X68.472 Y137.241 E24.9067
G1 X67.729 Y137.043 E24.94506
G1 X67.01 Y136.769 E24.98345
G1 X66.324 Y136.422 E25.0218
G1 X65.677 Y136.006 E25.06018
G1 X65.077 Y135.525 E25.09854
G1 X64.53 Y134.984 E25.13692
G1 X64.042 Y134.389 E25.17532
G1 X63.619 Y133.747 E25.21367
G1 X63.264 Y133.064 E25.25208
G1 X62.983 Y132.349 E25.2904
G1 X62.777 Y131.607 E25.32882
G1 X62.649 Y130.849 E25.36717
G1 X62.6 Y130 E25.4096
G1 X62.6 Y70 E28.40301
G1 X62.64 Y69.232 E28.44138
G1 X62.759 Y68.472 E28.47976
G1 X62.957 Y67.729 E28.51812
G1 X63.231 Y67.01 E28.55651
G1 X63.578 Y66.324 E28.59486
G1 X63.994 Y65.677 E28.63324
G1 X64.475 Y65.077 E28.6716
G1 X65.016 Y64.53 E28.70999
G0 F3600 X65.408 Y64.716
G1 F1800 X65.998 Y64.257 E28.74728
G1 X66.634 Y63.862 E28.78463
G1 X67.308 Y63.538 E28.82194
G1 X68.013 Y63.288 E28.85926
G1 X68.741 Y63.114 E28.8966
G1 X69.483 Y63.019 E28.93392
G1 X70 Y63 E28.95974
G1 X130 Y63 E31.95315
G1 X130.747 Y63.04 E31.99047
G1 X131.485 Y63.159 E32.02776
G1 X132.207 Y63.357 E32.06511
G1 X132.903 Y63.63 E32.10241
G1 X133.566 Y63.977 E32.13975
G1 X134.189 Y64.392 E32.17709
G1 X134.763 Y64.871 E32.21439
G1 X135.284 Y65.408 E32.25172
G1 X135.743 Y65.998 E32.28901
G1 X136.138 Y66.634 E32.32637
G1 X136.462 Y67.308 E32.36367
G1 X136.712 Y68.013 E32.40099
G1 X136.886 Y68.741 E32.43834
G1 X136.981 Y69.483 E32.47566
G1 X137 Y70 E32.50147
G1 X137 Y130 E35.49488
G1 X136.96 Y130.747 E35.5322
G1 X136.841 Y131.485 E35.5695
G1 X136.643 Y132.207 E35.60685
G1 X136.37 Y132.903 E35.64415
G1 X136.023 Y133.566 E35.68148
G1 X135.608 Y134.189 E35.71883
G1 X135.129 Y134.763 E35.75612
G1 X134.592 Y135.284 E35.79345
G1 X134.002 Y135.743 E35.83075
G1 X133.366 Y136.138 E35.8681
G1 X132.692 Y136.462 E35.90541
G1 X131.987 Y136.712 E35.94273
G1 X131.259 Y136.886 E35.98007
G1 X130.517 Y136.981 E36.01739
G1 X130 Y137 E36.0432
G1 X70 Y137 E39.03661
G1 X69.253 Y136.96 E39.07393
G1 X68.515 Y136.841 E39.11123
G1 X67.793 Y136.643 E39.14858
G1 X67.097 Y136.37 E39.18588
G1 X66.434 Y136.023 E39.22321
G1 X65.811 Y135.608 E39.26056
G1 X65.237 Y135.129 E39.29786
G1 X64.716 Y134.592 E39.33518
G1 X64.257 Y134.002 E39.37248
G1 X63.862 Y133.366 E39.40983
G1 X63.538 Y132.692 E39.44714
G1 X63.288 Y131.987 E39.48446
G1 X63.114 Y131.259 E39.5218
G1 X63.019 Y130.517 E39.55912
G1 X63 Y130 E39.58493
G1 X63 Y70 E42.57834
G1 X63.04 Y69.253 E42.61567
G1 X63.159 Y68.515 E42.65296
G1 X63.357 Y67.793 E42.69031
G1 X63.63 Y67.097 E42.72761
G1 X63.977 Y66.434 E42.76494
G1 X64.392 Y65.811 E42.80229
G1 X64.871 Y65.237 E42.83959
G1 X65.408 Y64.716 E42.87692
G0 F3600 X65.265 Y65.402
G1 F1800 X65.799 Y64.909 E42.91318
G1 X66.384 Y64.479 E42.9494
G1 X67.013 Y64.115 E42.98565
G1 X67.678 Y63.822 E43.02191
G1 X68.371 Y63.604 E43.05815
G1 X69.083 Y63.464 E43.09436
G1 X70 Y63.4 E43.14022
G1 X130 Y63.4 E46.13363
G1 X130.725 Y63.44 E46.16985
G1 X131.442 Y63.559 E46.20611
G1 X132.141 Y63.757 E46.24236
G1 X132.814 Y64.03 E46.27859
G1 X133.453 Y64.375 E46.31482
G1 X134.05 Y64.789 E46.35107
G1 X134.598 Y65.265 E46.38728
G1 X135.091 Y65.799 E46.42354
G1 X135.521 Y66.384 E46.45976
G1 X135.885 Y67.013 E46.49602
G1 X136.178 Y67.678 E46.53227
G1 X136.396 Y68.371 E46.56852
G1 X136.536 Y69.083 E46.60472
G1 X136.6 Y70 E46.65058
G1 X136.6 Y130 E49.64399
G1 X136.56 Y130.725 E49.68022
G1 X136.441 Y131.442 E49.71648
G1 X136.243 Y132.141 E49.75272
G1 X135.97 Y132.814 E49.78896
G1 X135.625 Y133.453 E49.82519
G1 X135.211 Y134.05 E49.86143
G1 X134.735 Y134.598 E49.89765
G1 X134.201 Y135.091 E49.9339
G1 X133.616 Y135.521 E49.97013
G1 X132.987 Y135.885 E50.00638
G1 X132.322 Y136.178 E50.04264
G1 X131.629 Y136.396 E50.07888
G1 X130.917 Y136.536 E50.11508
G1 X130 Y136.6 E50.16094
G1 X70 Y136.6 E53.15436
G1 X69.275 Y136.56 E53.19058
G1 X68.558 Y136.441 E53.22684
G1 X67.859 Y136.243 E53.26309
G1 X67.186 Y135.97 E53.29932
G1 X66.547 Y135.625 E53.33555
G1 X65.95 Y135.211 E53.3718
G1 X65.402 Y134.735 E53.40801
G1 X64.909 Y134.201 E53.44427
G1 X64.479 Y133.616 E53.48049
G1 X64.115 Y132.987 E53.51675
G1 X63.822 Y132.322 E53.553
G1 X63.604 Y131.629 E53.58925
G1 X63.464 Y130.917 E53.62545
G1 X63.4 Y130 E53.67131
G1 X63.4 Y70 E56.66472
G1 X63.44 Y69.275 E56.70095
G1 X63.559 Y68.558 E56.73721
G1 X63.757 Y67.859 E56.77345
G1 X64.03 Y67.186 E56.80969
G1 X64.375 Y66.547 E56.84592
G1 X64.789 Y65.95 E56.88216
G1 X65.265 Y65.402 E56.91837
G0 F3600 X65.659 Y65.573
G1 F1800 X66.189 Y65.109 E56.95352
G1 X66.768 Y64.709 E56.98863
G1 X67.389 Y64.377 E57.02376
G1 X68.043 Y64.117 E57.05887
G1 X68.723 Y63.933 E57.09402
G1 X69.419 Y63.827 E57.12914
G1 X70 Y63.8 E57.15816
G1 X130 Y63.8 E60.15157
G1 X130.703 Y63.84 E60.1867
G1 X131.397 Y63.959 E60.22183
G1 X132.072 Y64.157 E60.25692
G1 X132.721 Y64.429 E60.29203
G1 X133.335 Y64.774 E60.32717
G1 X133.906 Y65.185 E60.36227
G1 X134.427 Y65.659 E60.39741
G1 X134.891 Y66.189 E60.43255
G1 X135.291 Y66.768 E60.46766
G1 X135.623 Y67.389 E60.50279
G1 X135.883 Y68.043 E60.5379
G1 X136.067 Y68.723 E60.57305
G1 X136.173 Y69.419 E60.60817
G1 X136.2 Y70 E60.63719
G1 X136.2 Y130 E63.6306
G1 X136.16 Y130.703 E63.66573
G1 X136.041 Y131.397 E63.70086
G1 X135.843 Y132.072 E63.73596
G1 X135.571 Y132.721 E63.77106
G1 X135.226 Y133.335 E63.8062
G1 X134.815 Y133.906 E63.8413
G1 X134.341 Y134.427 E63.87644
G1 X133.811 Y134.891 E63.91158
G1 X133.232 Y135.291 E63.94669
G1 X132.611 Y135.623 E63.98182
G1 X131.957 Y135.883 E64.01694
G1 X131.277 Y136.067 E64.05208
G1 X130.581 Y136.173 E64.08721
G1 X130 Y136.2 E64.11622
G1 X70 Y136.2 E67.10964
G1 X69.297 Y136.16 E67.14477
G1 X68.603 Y136.041 E67.17989
G1 X67.928 Y135.843 E67.21499
G1 X67.279 Y135.571 E67.2501
G1 X66.665 Y135.226 E67.28523
G1 X66.094 Y134.815 E67.32033
G1 X65.573 Y134.341 E67.35547
G1 X65.109 Y133.811 E67.39062
G1 X64.709 Y133.232 E67.42573
G1 X64.377 Y132.611 E67.46086
G1 X64.117 Y131.957 E67.49597
G1 X63.933 Y131.277 E67.53112
G1 X63.827 Y130.581 E67.56624
G1 X63.8 Y130 E67.59526
G1 X63.8 Y70 E70.58867
G1 X63.84 Y69.297 E70.6238
G1 X63.959 Y68.603 E70.65893
G1 X64.157 Y67.928 E70.69402
G1 X64.429 Y67.279 E70.72913
G1 X64.774 Y66.665 E70.76427
G1 X65.185 Y66.094 E70.79937
G1 X65.659 Y65.573 E70.83451
G0 F3600 X66.053 Y65.751
G1 F1800 X66.578 Y65.317 E70.86849
G1 X67.15 Y64.948 E70.90245
G1 X67.762 Y64.649 E70.93643
G1 X68.404 Y64.424 E70.97037
G1 X69.069 Y64.275 E71.00437
G1 X70 Y64.2 E71.05097
G1 X130 Y64.2 E74.04438
G1 X130.68 Y64.24 E74.07837
G1 X131.35 Y64.359 E74.11232
G1 X132.002 Y64.556 E74.1463
G1 X132.626 Y64.828 E74.18026
G1 X133.214 Y65.172 E74.21424
G1 X133.758 Y65.582 E74.24823
G1 X134.249 Y66.053 E74.28217
G1 X134.683 Y66.578 E74.31616
G1 X135.052 Y67.15 E74.35012
G1 X135.351 Y67.762 E74.3841
G1 X135.576 Y68.404 E74.41804
G1 X135.725 Y69.069 E74.45204
G1 X135.8 Y70 E74.49864
G1 X135.8 Y130 E77.49205
G1 X135.76 Y130.68 E77.52603
G1 X135.641 Y131.35 E77.55998
G1 X135.444 Y132.002 E77.59396
G1 X135.172 Y132.626 E77.62792
G1 X134.828 Y133.214 E77.66191
G1 X134.418 Y133.758 E77.6959
G1 X133.947 Y134.249 E77.72984
G1 X133.422 Y134.683 E77.76382
G1 X132.85 Y135.052 E77.79778
G1 X132.238 Y135.351 E77.83177
G1 X131.596 Y135.576 E77.8657
G1 X130.931 Y135.725 E77.8997
G1 X130 Y135.8 E77.9463
G1 X70 Y135.8 E80.93971
G1 X69.32 Y135.76 E80.9737
G1 X68.65 Y135.641 E81.00765
G1 X67.998 Y135.444 E81.04163
G1 X67.374 Y135.172 E81.07559
G1 X66.786 Y134.828 E81.10958
G1 X66.242 Y134.418 E81.14356
G1 X65.751 Y133.947 E81.17751
G1 X65.317 Y133.422 E81.21149
G1 X64.948 Y132.85 E81.24545
G1 X64.649 Y132.238 E81.27943
G1 X64.424 Y131.596 E81.31337
G1 X64.275 Y130.931 E81.34737
G1 X64.2 Y130 E81.39397
G1 X64.2 Y70 E84.38738
G1 X64.24 Y69.32 E84.42137
G1 X64.359 Y68.65 E84.45531
G1 X64.556 Y67.998 E84.4893
G1 X64.828 Y67.374 E84.52326
G1 X65.172 Y66.786 E84.55724
G1 X65.582 Y66.242 E84.59123
G1 X66.053 Y65.751 E84.62517
G0 F3600 X66.445 Y65.935
G1 F1800 X66.965 Y65.534 E84.65793
G1 X67.529 Y65.198 E84.69069
G1 X68.131 Y64.934 E84.72348
G1 X68.76 Y64.744 E84.75626
G1 X69.407 Y64.633 E84.78901
G1 X70 Y64.6 E84.81864
G1 X130 Y64.6 E87.81206
G1 X130.656 Y64.64 E87.84484
G1 X131.302 Y64.759 E87.87762
G1 X131.929 Y64.956 E87.91041
G1 X132.527 Y65.228 E87.94318
G1 X133.088 Y65.57 E87.97596
G1 X133.603 Y65.978 E88.00874
G1 X134.065 Y66.445 E88.04151
G1 X134.466 Y66.965 E88.07427
G1 X134.802 Y67.529 E88.10703
G1 X135.066 Y68.131 E88.13982
G1 X135.256 Y68.76 E88.1726
G1 X135.367 Y69.407 E88.20535
G1 X135.4 Y70 E88.23498
G1 X135.4 Y130 E91.2284
G1 X135.36 Y130.656 E91.26118
G1 X135.241 Y131.302 E91.29396
G1 X135.044 Y131.929 E91.32675
G1 X134.772 Y132.527 E91.35952
G1 X134.43 Y133.088 E91.3923
G1 X134.022 Y133.603 E91.42508
G1 X133.555 Y134.065 E91.45785
G1 X133.035 Y134.466 E91.49061
G1 X132.471 Y134.802 E91.52337
G1 X131.869 Y135.066 E91.55616
G1 X131.24 Y135.256 E91.58894
G1 X130.593 Y135.367 E91.62169
G1 X130 Y135.4 E91.65132
G1 X70 Y135.4 E94.64474
G1 X69.344 Y135.36 E94.67752
G1 X68.698 Y135.241 E94.7103
G1 X68.071 Y135.044 E94.74309
G1 X67.473 Y134.772 E94.77586
G1 X66.912 Y134.43 E94.80864
G1 X66.397 Y134.022 E94.84142
G1 X65.935 Y133.555 E94.87419
G1 X65.534 Y133.035 E94.90695
G1 X65.198 Y132.471 E94.93971
G1 X64.934 Y131.869 E94.9725
G1 X64.744 Y131.24 E95.00528
G1 X64.633 Y130.593 E95.03803
G1 X64.6 Y130 E95.06766
G1 X64.6 Y70 E98.06108
G1 X64.64 Y69.344 E98.09386
G1 X64.759 Y68.698 E98.12664
G1 X64.956 Y68.071 E98.15943
G1 X65.228 Y67.473 E98.1922
G1 X65.57 Y66.912 E98.22498
G1 X65.978 Y66.397 E98.25776
G1 X66.445 Y65.935 E98.29053
G0 F3600 X66.373 Y66.559
G1 F1800 X66.836 Y66.129 E98.32206
G1 X67.35 Y65.76 E98.35362
G1 X67.906 Y65.46 E98.38514
G1 X68.495 Y65.232 E98.41665
G1 X69.109 Y65.08 E98.44821
G1 X70 Y65 E98.49284
G1 X130 Y65 E101.48625
G1 X130.631 Y65.04 E101.5178
G1 X131.252 Y65.159 E101.54934
G1 X131.852 Y65.356 E101.58085
G1 X132.424 Y65.627 E101.61243
G1 X132.956 Y65.967 E101.64393
G1 X133.441 Y66.373 E101.67548
G1 X133.871 Y66.836 E101.70701
G1 X134.24 Y67.35 E101.73857
G1 X134.54 Y67.906 E101.77009
G1 X134.768 Y68.495 E101.8016
G1 X134.92 Y69.109 E101.83316
G1 X135 Y70 E101.87779
G1 X135 Y130 E104.8712
G1 X134.96 Y130.631 E104.90275
G1 X134.841 Y131.252 E104.93429
G1 X134.644 Y131.852 E104.9658
G1 X134.373 Y132.424 E104.99738
G1 X134.033 Y132.956 E105.02888
G1 X133.627 Y133.441 E105.06043
G1 X133.164 Y133.871 E105.09196
G1 X132.65 Y134.24 E105.12352
G1 X132.094 Y134.54 E105.15504
G1 X131.505 Y134.768 E105.18655
G1 X130.891 Y134.92 E105.21811
G1 X130 Y135 E105.26274
G1 X70 Y135 E108.25615
G1 X69.369 Y134.96 E108.2877
G1 X68.748 Y134.841 E108.31924
G1 X68.148 Y134.644 E108.35075
G1 X67.576 Y134.373 E108.38233
G1 X67.044 Y134.033 E108.41383
G1 X66.559 Y133.627 E108.44538
G1 X66.129 Y133.164 E108.47691
G1 X65.76 Y132.65 E108.50848
G1 X65.46 Y132.094 E108.53999
G1 X65.232 Y131.505 E108.5715
G1 X65.08 Y130.891 E108.60306
G1 X65 Y130 E108.64769
G1 X65 Y70 E111.6411
G1 X65.04 Y69.369 E111.67265
G1 X65.159 Y68.748 E111.70419
G1 X65.356 Y68.148 E111.7357
G1 X65.627 Y67.576 E111.76728
G1 X65.967 Y67.044 E111.79878
G1 X66.373 Y66.559 E111.83033
G0 F3600 X66.767 Y66.728
G1 F1800 X67.225 Y66.331 E111.86057
G1 X67.732 Y65.998 E111.89083
G1 X68.278 Y65.734 E111.92109
G1 X68.854 Y65.545 E111.95134
G1 X69.45 Y65.433 E111.98159
G1 X70 Y65.4 E112.00908
G1 X130 Y65.4 E115.00249
G1 X130.605 Y65.44 E115.03274
G1 X131.199 Y65.559 E115.06297
G1 X131.773 Y65.755 E115.09323
G1 X132.316 Y66.026 E115.1235
G1 X132.819 Y66.365 E115.15376
G1 X133.272 Y66.767 E115.18398
G1 X133.669 Y67.225 E115.21422
G1 X134.002 Y67.732 E115.24448
G1 X134.266 Y68.278 E115.27474
G1 X134.455 Y68.854 E115.30498
G1 X134.567 Y69.45 E115.33524
G1 X134.6 Y70 E115.36273
G1 X134.6 Y130 E118.35614
G1 X134.56 Y130.605 E118.38639
G1 X134.441 Y131.199 E118.41661
G1 X134.245 Y131.773 E118.44687
G1 X133.974 Y132.316 E118.47715
G1 X133.635 Y132.819 E118.50741
G1 X133.233 Y133.272 E118.53763
G1 X132.775 Y133.669 E118.56787
G1 X132.268 Y134.002 E118.59813
G1 X131.722 Y134.266 E118.62839
G1 X131.146 Y134.455 E118.65863
G1 X130.55 Y134.567 E118.68889
G1 X130 Y134.6 E118.71637
G1 X70 Y134.6 E121.70979
G1 X69.395 Y134.56 E121.74004
G1 X68.801 Y134.441 E121.77026
G1 X68.227 Y134.245 E121.80052
G1 X67.684 Y133.974 E121.8308
G1 X67.181 Y133.635 E121.86106
