;FLAVOR:Marlin
;TIME:2647
;Filament used: 1.51992m
;Layer height: 0.1
;MINX:66.8
;MINY:66.8
;MINZ:0.3
;MAXX:133.2
;MAXY:133.2
;MAXZ:5
;Generated with Cura_SteamEngine 4.13.1
M140 S60
M105
M190 S60
M104 S200
M105
M109 S200
M82 ;absolute extrusion mode
G21 ;metric values
G90 ;absolute positioning
M82 ;set extruder to absolute mode
M107 ;start with the fan off
G28 X0 Y0 ;move X/Y to min endstops
G28 Z0 ;move Z to min endstops
G1 Z15.0 F9000 ;move the platform down 15mm
G92 E0 ;zero the extruded length
G1 F200 E3 ;extrude 3mm of feed stock
G92 E0 ;zero the extruded length again
G1 F9000
;Put printing message on LCD screen
M117 Printing...
G92 E0
G92 E0
G1 F1500 E-6.5
;LAYER_COUNT:48
;LAYER:0
M107
G0 F3600 X67.789 Y67.704 Z0.3
;TYPE:SKIRT
G1 F1500 E0
G1 F1800 X68.18 Y67.383 E0.02524
G1 X68.617 Y67.128 E0.05048
G1 X69.088 Y66.944 E0.07571
G1 X69.582 Y66.838 E0.10092
G1 X70.24 Y66.801 E0.1338
G1 X129.339 Y66.8 E3.08226
G1 X130.037 Y66.81 E3.11708
G1 X130.54 Y66.857 E3.14229
G1 X131.03 Y66.983 E3.16753
G1 X131.494 Y67.185 E3.19278
G1 X131.92 Y67.457 E3.21799
G1 X132.298 Y67.792 E3.24319
G1 X132.618 Y68.183 E3.2684
G1 X132.873 Y68.62 E3.29364
G1 X133.056 Y69.091 E3.31885
G1 X133.163 Y69.585 E3.34407
G1 X133.199 Y70.24 E3.3768
G1 X133.2 Y129.304 E6.32351
G1 X133.191 Y130.031 E6.35978
G1 X133.145 Y130.534 E6.38498
G1 X133.02 Y131.024 E6.41021
G1 X132.819 Y131.488 E6.43544
G1 X132.548 Y131.915 E6.46067
G1 X132.213 Y132.294 E6.48591
G1 X131.823 Y132.615 E6.51111
G1 X131.387 Y132.871 E6.53633
G1 X130.916 Y133.054 E6.56154
G1 X130.422 Y133.162 E6.58677
G1 X129.76 Y133.199 E6.61985
G1 X70.666 Y133.2 E9.56806
G1 X69.968 Y133.191 E9.60289
G1 X69.464 Y133.144 E9.62814
G1 X68.974 Y133.019 E9.65337
G1 X68.51 Y132.818 E9.6786
G1 X68.084 Y132.547 E9.70379
G1 X67.705 Y132.212 E9.72902
G1 X67.384 Y131.821 E9.75426
G1 X67.129 Y131.385 E9.77946
G1 X66.945 Y130.914 E9.80469
G1 X66.838 Y130.42 E9.8299
G1 X66.801 Y129.744 E9.86368
G1 X66.8 Y70.631 E12.81284
G1 X66.809 Y69.966 E12.84602
G1 X66.856 Y69.462 E12.87127
G1 X66.982 Y68.973 E12.89647
G1 X67.183 Y68.509 E12.9217
G1 X67.454 Y68.082 E12.94693
G1 X67.789 Y67.704 E12.97213
G1 F1500 E6.47213
;MESH:square.stl
G0 F3600 X70.614 Y69.335
G0 X70.614 Y70.614
G0 X74.33 Y125.67
G1 F1500 E12.97213
G0 F3600 X74.4 Y125.6
;TYPE:WALL-INNER
G1 F1800 X98.4 Y125.6 E14.16949
G1 X98.4 Y126.1 E14.19444
G1 X101.6 Y126.1 E14.35408
G1 X101.6 Y125.6 E14.37903
G1 X125.6 Y125.6 E15.57639
G1 X125.6 Y101.6 E16.77376
G1 X126.1 Y101.6 E16.7987
G1 X126.1 Y98.4 E16.95835
G1 X125.6 Y98.4 E16.9833
G1 X125.6 Y74.4 E18.18066
G1 X101.6 Y74.4 E19.37803
G1 X101.6 Y73.9 E19.40297
G1 X98.4 Y73.9 E19.56262
G1 X98.4 Y74.4 E19.58757
G1 X74.4 Y74.4 E20.78493
G1 X74.4 Y94.4 E21.78273
G1 X73.9 Y94.4 E21.80768
G1 X73.9 Y97.6 E21.96733
G1 X74.4 Y97.6 E21.99227
G1 X74.4 Y125.6 E23.3892
G0 F3600 X74.33 Y125.67
G0 X129.33 Y129.33
G0 X129.4 Y129.4
G1 F1800 X70.6 Y129.4 E26.32274
G1 X70.6 Y70.6 E29.25629
G1 X129.4 Y70.6 E32.18983
G1 X129.4 Y129.4 E35.12338
G0 F3600 X129.8 Y129.8
;TYPE:WALL-OUTER
G1 F1800 X70.2 Y129.8 E38.09683
G1 X70.2 Y70.2 E41.07029
G1 X129.8 Y70.2 E44.04374
G1 X129.8 Y129.8 E47.0172
G0 F3600 X129.6 Y129.8
G0 X129.33 Y129.33
G0 X74.372 Y125.628
G0 X74.8 Y125.2
G1 F1800 X98.8 Y125.2 E48.21456
G1 X98.8 Y125.7 E48.23951
G1 X101.2 Y125.7 E48.35925
G1 X101.2 Y125.2 E48.38419
G1 X125.2 Y125.2 E49.58156
G1 X125.2 Y101.2 E50.77892
G1 X125.7 Y101.2 E50.80387
G1 X125.7 Y98.8 E50.9236
G1 X125.2 Y98.8 E50.94855
G1 X125.2 Y74.8 E52.14591
G1 X101.2 Y74.8 E53.34328
G1 X101.2 Y74.3 E53.36822
G1 X98.8 Y74.3 E53.48796
G1 X98.8 Y74.8 E53.5129
G1 X74.8 Y74.8 E54.71027
G1 X74.8 Y94.8 E55.70807
G1 X74.3 Y94.8 E55.73302
G1 X74.3 Y97.2 E55.85275
G1 X74.8 Y97.2 E55.8777
G1 X74.8 Y125.2 E57.27463
G0 F3600 X75 Y125.2
G0 X75 Y125.7
G0 X74.01 Y125.99
;TYPE:SKIN
G1 F1800 X98.01 Y125.99 E58.47199
G1 X98.01 Y126.49 E58.49693
G1 X101.99 Y126.49 E58.6955
G1 X101.99 Y125.99 E58.72044
G1 X125.99 Y125.99 E59.91781
G1 X125.99 Y101.99 E61.11517
G1 X126.49 Y101.99 E61.14012
G1 X126.49 Y98.01 E61.33868
G1 X125.99 Y98.01 E61.36363
G1 X125.99 Y74.01 E62.56099
G1 X101.99 Y74.01 E63.75836
G1 X101.99 Y73.51 E63.7833
G1 X98.01 Y73.51 E63.98186
G1 X98.01 Y74.01 E64.00681
G1 X74.01 Y74.01 E65.20417
G1 X74.01 Y94.01 E66.20198
G1 X73.51 Y94.01 E66.22692
G1 X73.51 Y97.99 E66.42549
G1 X74.01 Y97.99 E66.45043
G1 X74.01 Y125.99 E67.84736
G0 F3600 X70.99 Y129.01
G1 F1800 X70.99 Y70.99 E70.74199
G1 X129.01 Y70.99 E73.63662
G1 X129.01 Y129.01 E76.53125
G1 X70.99 Y129.01 E79.42587
G0 F3600 X71.694 Y128.829
G1 F1800 X71.169 Y128.303 E79.46295
G0 F3600 X71.169 Y127.738
G1 F1800 X72.26 Y128.829 E79.53993
G0 F3600 X72.826 Y128.829
G1 F1800 X71.169 Y127.172 E79.65684
G0 F3600 X71.169 Y126.606
G1 F1800 X73.392 Y128.829 E79.81368
G0 F3600 X73.957 Y128.829
G1 F1800 X71.169 Y126.041 E80.01039
G0 F3600 X71.169 Y125.475
G1 F1800 X74.523 Y128.829 E80.24703
G0 F3600 X75.089 Y128.829
G1 F1800 X71.169 Y124.909 E80.52361
G0 F3600 X71.169 Y124.344
G1 F1800 X75.654 Y128.829 E80.84005
G0 F3600 X76.22 Y128.829
G1 F1800 X71.169 Y123.778 E81.19643
G0 F3600 X71.169 Y123.212
G1 F1800 X73.83 Y125.873 E81.38418
G0 F3600 X74.126 Y126.169
G1 F1800 X76.786 Y128.829 E81.57185
G0 F3600 X77.351 Y128.829
G1 F1800 X74.691 Y126.169 E81.75953
G0 F3600 X75.257 Y126.169
G1 F1800 X77.917 Y128.829 E81.94721
G0 F3600 X78.483 Y128.829
G1 F1800 X75.823 Y126.169 E82.13488
G0 F3600 X76.388 Y126.169
G1 F1800 X79.048 Y128.829 E82.32256
G0 F3600 X79.614 Y128.829
G1 F1800 X76.954 Y126.169 E82.51024
G0 F3600 X77.52 Y126.169
G1 F1800 X80.18 Y128.829 E82.69792
G0 F3600 X80.745 Y128.829
G1 F1800 X78.085 Y126.169 E82.88559
G0 F3600 X78.651 Y126.169
G1 F1800 X81.311 Y128.829 E83.07327
G0 F3600 X81.877 Y128.829
G1 F1800 X79.217 Y126.169 E83.26095
G0 F3600 X79.782 Y126.169
G1 F1800 X82.442 Y128.829 E83.44863
G0 F3600 X83.008 Y128.829
G1 F1800 X80.348 Y126.169 E83.6363
G0 F3600 X80.914 Y126.169
G1 F1800 X83.574 Y128.829 E83.82398
G0 F3600 X84.14 Y128.829
G1 F1800 X81.479 Y126.169 E84.01169
G0 F3600 X82.045 Y126.169
G1 F1800 X84.705 Y128.829 E84.19937
G0 F3600 X85.271 Y128.829
G1 F1800 X82.611 Y126.169 E84.38705
G0 F3600 X83.176 Y126.169
G1 F1800 X85.837 Y128.829 E84.57476
G0 F3600 X86.402 Y128.829
G1 F1800 X83.742 Y126.169 E84.76244
G0 F3600 X84.308 Y126.169
G1 F1800 X86.968 Y128.829 E84.95012
G0 F3600 X87.534 Y128.829
G1 F1800 X84.874 Y126.169 E85.13779
G0 F3600 X85.439 Y126.169
G1 F1800 X88.099 Y128.829 E85.32547
G0 F3600 X88.665 Y128.829
G1 F1800 X86.005 Y126.169 E85.51315
G0 F3600 X86.571 Y126.169
G1 F1800 X89.231 Y128.829 E85.70083
G0 F3600 X89.796 Y128.829
G1 F1800 X87.136 Y126.169 E85.8885
G0 F3600 X87.702 Y126.169
G1 F1800 X90.362 Y128.829 E86.07618
G0 F3600 X90.928 Y128.829
G1 F1800 X88.268 Y126.169 E86.26386
G0 F3600 X88.833 Y126.169
G1 F1800 X91.493 Y128.829 E86.45153
G0 F3600 X92.059 Y128.829
G1 F1800 X89.399 Y126.169 E86.63921
G0 F3600 X89.965 Y126.169
G1 F1800 X92.625 Y128.829 E86.82689
G0 F3600 X93.191 Y128.829
G1 F1800 X90.53 Y126.169 E87.0146
G0 F3600 X91.096 Y126.169
G1 F1800 X93.756 Y128.829 E87.20228
G0 F3600 X94.322 Y128.829
G1 F1800 X91.662 Y126.169 E87.38996
G0 F3600 X92.227 Y126.169
G1 F1800 X94.888 Y128.829 E87.57767
G0 F3600 X95.453 Y128.829
G1 F1800 X92.793 Y126.169 E87.76535
G0 F3600 X93.359 Y126.169
G1 F1800 X96.019 Y128.829 E87.95302
G0 F3600 X96.585 Y128.829
G1 F1800 X93.924 Y126.169 E88.14074
G0 F3600 X94.49 Y126.169
G1 F1800 X97.15 Y128.829 E88.32841
G0 F3600 X97.716 Y128.829
G1 F1800 X95.056 Y126.169 E88.51609
G0 F3600 X95.622 Y126.169
G1 F1800 X98.282 Y128.829 E88.70377
G0 F3600 X98.847 Y128.829
G1 F1800 X96.187 Y126.169 E88.89145
G0 F3600 X96.753 Y126.169
G1 F1800 X99.413 Y128.829 E89.07912
G0 F3600 X99.979 Y128.829
G1 F1800 X97.319 Y126.169 E89.2668
G1 X97.249 Y126.099
G0 F3600 X98.385 Y126.669
G1 F1800 X100.544 Y128.829 E89.41917
G0 F3600 X101.11 Y128.829
G1 F1800 X98.951 Y126.669 E89.57153
G0 F3600 X99.516 Y126.669
G1 F1800 X101.676 Y128.829 E89.72393
G0 F3600 X102.241 Y128.829
G1 F1800 X100.082 Y126.669 E89.87629
G0 F3600 X100.648 Y126.669
G1 F1800 X102.807 Y128.829 E90.02866
G0 F3600 X103.373 Y128.829
G1 F1800 X101.213 Y126.669 E90.18106
G0 F3600 X101.779 Y126.669
G1 F1800 X103.939 Y128.829 E90.33346
G0 F3600 X104.504 Y128.829
G1 F1800 X102.169 Y126.494 E90.4982
G0 F3600 X102.41 Y126.169
G1 F1800 X105.07 Y128.829 E90.68588
G0 F3600 X105.636 Y128.829
G1 F1800 X102.976 Y126.169 E90.87356
G0 F3600 X103.542 Y126.169
G1 F1800 X106.201 Y128.829 E91.0612
G0 F3600 X106.767 Y128.829
G1 F1800 X104.108 Y126.169 E91.24884
G0 F3600 X104.673 Y126.169
G1 F1800 X107.333 Y128.829 E91.43652
G0 F3600 X107.898 Y128.829
G1 F1800 X105.239 Y126.169 E91.62416
G0 F3600 X105.805 Y126.169
G1 F1800 X108.464 Y128.829 E91.81181
G0 F3600 X109.03 Y128.829
G1 F1800 X106.37 Y126.169 E91.99948
G0 F3600 X106.936 Y126.169
G1 F1800 X109.595 Y128.829 E92.18712
G0 F3600 X110.161 Y128.829
G1 F1800 X107.502 Y126.169 E92.37477
G0 F3600 X108.067 Y126.169
G1 F1800 X110.727 Y128.829 E92.56244
G0 F3600 X111.292 Y128.829
G1 F1800 X108.633 Y126.169 E92.75009
G0 F3600 X109.199 Y126.169
G1 F1800 X111.858 Y128.829 E92.93773
G0 F3600 X112.424 Y128.829
G1 F1800 X109.764 Y126.169 E93.12541
G0 F3600 X110.33 Y126.169
G1 F1800 X112.99 Y128.829 E93.31308
G0 F3600 X113.555 Y128.829
G1 F1800 X110.896 Y126.169 E93.50073
G0 F3600 X111.461 Y126.169
G1 F1800 X114.121 Y128.829 E93.6884
G0 F3600 X114.687 Y128.829
G1 F1800 X112.027 Y126.169 E93.87608
G0 F3600 X112.593 Y126.169
G1 F1800 X115.252 Y128.829 E94.06372
G0 F3600 X115.818 Y128.829
G1 F1800 X113.159 Y126.169 E94.25136
G0 F3600 X113.724 Y126.169
G1 F1800 X116.384 Y128.829 E94.43904
G0 F3600 X116.949 Y128.829
G1 F1800 X114.29 Y126.169 E94.62668
G0 F3600 X114.856 Y126.169
G1 F1800 X117.515 Y128.829 E94.81433
G0 F3600 X118.081 Y128.829
G1 F1800 X115.421 Y126.169 E95.002
G0 F3600 X115.987 Y126.169
G1 F1800 X118.646 Y128.829 E95.18964
G0 F3600 X119.212 Y128.829
G1 F1800 X116.553 Y126.169 E95.37729
G0 F3600 X117.118 Y126.169
G1 F1800 X119.778 Y128.829 E95.56496
G0 F3600 X120.343 Y128.829
G1 F1800 X117.684 Y126.169 E95.75261
G0 F3600 X118.25 Y126.169
G1 F1800 X120.909 Y128.829 E95.94025
G0 F3600 X121.475 Y128.829
G1 F1800 X118.815 Y126.169 E96.12793
G0 F3600 X119.381 Y126.169
G1 F1800 X122.04 Y128.829 E96.31557
G0 F3600 X122.606 Y128.829
G1 F1800 X119.947 Y126.169 E96.50321
G0 F3600 X120.512 Y126.169
G1 F1800 X123.172 Y128.829 E96.69089
G0 F3600 X123.738 Y128.829
G1 F1800 X121.078 Y126.169 E96.87856
G0 F3600 X121.644 Y126.169
G1 F1800 X124.303 Y128.829 E97.06621
G0 F3600 X124.869 Y128.829
G1 F1800 X122.209 Y126.169 E97.25388
G0 F3600 X122.775 Y126.169
G1 F1800 X125.435 Y128.829 E97.44156
G0 F3600 X126 Y128.829
G1 F1800 X123.341 Y126.169 E97.6292
G0 F3600 X123.907 Y126.169
G1 F1800 X126.566 Y128.829 E97.81685
G0 F3600 X127.132 Y128.829
G1 F1800 X124.472 Y126.169 E98.00452
G0 F3600 X125.038 Y126.169
G1 F1800 X127.697 Y128.829 E98.19217
G0 F3600 X128.263 Y128.829
G1 F1800 X125.604 Y126.169 E98.37981
G0 F3600 X126.169 Y126.169
G1 F1800 X128.829 Y128.829 E98.56748
G0 F3600 X128.829 Y128.264
G1 F1800 X126.169 Y125.603 E98.7552
G0 F3600 X126.169 Y125.037
G1 F1800 X128.829 Y127.698 E98.94291
G0 F3600 X128.829 Y127.132
G1 F1800 X126.169 Y124.472 E99.13059
G0 F3600 X126.169 Y123.906
G1 F1800 X128.829 Y126.567 E99.3183
G0 F3600 X128.829 Y126.001
G1 F1800 X126.169 Y123.34 E99.50601
G0 F3600 X126.169 Y122.774
G1 F1800 X128.829 Y125.435 E99.69373
G0 F3600 X128.829 Y124.87
G1 F1800 X126.169 Y122.209 E99.88144
G0 F3600 X126.169 Y121.643
G1 F1800 X128.829 Y124.304 E100.06915
G0 F3600 X128.829 Y123.738
G1 F1800 X126.169 Y121.077 E100.25686
G0 F3600 X126.169 Y120.512
G1 F1800 X128.829 Y123.173 E100.44458
G0 F3600 X128.829 Y122.607
G1 F1800 X126.169 Y119.946 E100.63229
G0 F3600 X126.169 Y119.38
G1 F1800 X128.829 Y122.041 E100.82
G0 F3600 X128.829 Y121.475
G1 F1800 X126.169 Y118.815 E101.00768
G0 F3600 X126.169 Y118.249
G1 F1800 X128.829 Y120.91 E101.19539
G0 F3600 X128.829 Y120.344
G1 F1800 X126.169 Y117.683 E101.3831
G0 F3600 X126.169 Y117.118
G1 F1800 X128.829 Y119.778 E101.57078
G0 F3600 X128.829 Y119.213
G1 F1800 X126.169 Y116.552 E101.75849
G0 F3600 X126.169 Y115.986
G1 F1800 X128.829 Y118.647 E101.94621
G0 F3600 X128.829 Y118.081
G1 F1800 X126.169 Y115.421 E102.13388
G0 F3600 X126.169 Y114.855
G1 F1800 X128.829 Y117.516 E102.3216
G0 F3600 X128.829 Y116.95
G1 F1800 X126.169 Y114.289 E102.50931
G0 F3600 X126.169 Y113.723
G1 F1800 X128.829 Y116.384 E102.69702
G0 F3600 X128.829 Y115.819
G1 F1800 X126.169 Y113.158 E102.88473
G0 F3600 X126.169 Y112.592
G1 F1800 X128.829 Y115.253 E103.07245
G0 F3600 X128.829 Y114.687
G1 F1800 X126.169 Y112.026 E103.26016
G0 F3600 X126.169 Y111.461
G1 F1800 X128.829 Y114.122 E103.44787
G0 F3600 X128.829 Y113.556
G1 F1800 X126.169 Y110.895 E103.63559
G0 F3600 X126.169 Y110.329
G1 F1800 X128.829 Y112.99 E103.8233
G0 F3600 X128.829 Y112.425
G1 F1800 X126.169 Y109.764 E104.01101
G0 F3600 X126.169 Y109.198
G1 F1800 X128.829 Y111.859 E104.19872
G0 F3600 X128.829 Y111.293
G1 F1800 X126.169 Y108.632 E104.38644
G0 F3600 X126.169 Y108.067
G1 F1800 X128.829 Y110.727 E104.57411
G0 F3600 X128.829 Y110.162
G1 F1800 X126.169 Y107.501 E104.76183
G0 F3600 X126.169 Y106.935
G1 F1800 X128.829 Y109.596 E104.94954
G0 F3600 X128.829 Y109.03
G1 F1800 X126.169 Y106.37 E105.13722
G0 F3600 X126.169 Y105.804
G1 F1800 X128.829 Y108.465 E105.32493
G0 F3600 X128.829 Y107.899
G1 F1800 X126.169 Y105.238 E105.51264
G0 F3600 X126.169 Y104.673
G1 F1800 X128.829 Y107.333 E105.70032
G0 F3600 X128.829 Y106.768
G1 F1800 X126.169 Y104.107 E105.88803
G0 F3600 X126.169 Y103.541
G1 F1800 X128.829 Y106.202 E106.07574
G0 F3600 X128.829 Y105.636
G1 F1800 X126.169 Y102.975 E106.26346
G0 F3600 X126.169 Y102.41
G1 F1800 X128.829 Y105.071 E106.45117
G0 F3600 X128.829 Y104.505
G1 F1800 X126.494 Y102.169 E106.61595
G0 F3600 X126.668 Y101.778
G1 F1800 X128.829 Y103.939 E106.76842
G0 F3600 X128.829 Y103.374
G1 F1800 X126.668 Y101.213 E106.92089
G0 F3600 X126.668 Y100.647
G1 F1800 X128.829 Y102.808 E107.07336
G0 F3600 X128.829 Y102.242
G1 F1800 X126.668 Y100.081 E107.22583
G0 F3600 X126.668 Y99.516
G1 F1800 X128.829 Y101.677 E107.3783
G0 F3600 X128.829 Y101.111
G1 F1800 X126.668 Y98.95 E107.53077
G0 F3600 X126.668 Y98.384
G1 F1800 X128.829 Y100.545 E107.68324
G0 F3600 X128.829 Y99.979
G1 F1800 X126.169 Y97.319 E107.87092
G0 F3600 X126.169 Y96.753
G1 F1800 X128.829 Y99.414 E108.05863
G0 F3600 X128.829 Y98.848
G1 F1800 X126.169 Y96.187 E108.24635
G0 F3600 X126.169 Y95.622
G1 F1800 X128.829 Y98.282 E108.43402
G0 F3600 X128.829 Y97.717
G1 F1800 X126.169 Y95.056 E108.62174
G0 F3600 X126.169 Y94.49
G1 F1800 X128.829 Y97.151 E108.80945
G0 F3600 X128.829 Y96.585
G1 F1800 X126.169 Y93.924 E108.99716
G0 F3600 X126.169 Y93.359
G1 F1800 X128.829 Y96.02 E109.18487
G0 F3600 X128.829 Y95.454
G1 F1800 X126.169 Y92.793 E109.37259
G0 F3600 X126.169 Y92.227
G1 F1800 X128.829 Y94.888 E109.5603
G0 F3600 X128.829 Y94.323
G1 F1800 X126.169 Y91.662 E109.74801
G0 F3600 X126.169 Y91.096
G1 F1800 X128.829 Y93.757 E109.93572
G0 F3600 X128.829 Y93.191
G1 F1800 X126.169 Y90.53 E110.12344
G0 F3600 X126.169 Y89.965
G1 F1800 X128.829 Y92.626 E110.31115
G0 F3600 X128.829 Y92.06
G1 F1800 X126.169 Y89.399 E110.49886
G0 F3600 X126.169 Y88.833
G1 F1800 X128.829 Y91.494 E110.68657
G0 F3600 X128.829 Y90.928
G1 F1800 X126.169 Y88.268 E110.87425
G0 F3600 X126.169 Y87.702
G1 F1800 X128.829 Y90.363 E111.06196
G0 F3600 X128.829 Y89.797
G1 F1800 X126.169 Y87.136 E111.24968
G0 F3600 X126.169 Y86.571
G1 F1800 X128.829 Y89.231 E111.43735
G0 F3600 X128.829 Y88.666
G1 F1800 X126.169 Y86.005 E111.62507
G0 F3600 X126.169 Y85.439
G1 F1800 X128.829 Y88.1 E111.81278
G0 F3600 X128.829 Y87.534
G1 F1800 X126.169 Y84.874 E112.00046
G0 F3600 X126.169 Y84.308
G1 F1800 X128.829 Y86.969 E112.18817
G0 F3600 X128.829 Y86.403
G1 F1800 X126.169 Y83.742 E112.37588
G0 F3600 X126.169 Y83.176
G1 F1800 X128.829 Y85.837 E112.5636
G0 F3600 X128.829 Y85.272
G1 F1800 X126.169 Y82.611 E112.75131
G0 F3600 X126.169 Y82.045
G1 F1800 X128.829 Y84.706 E112.93902
G0 F3600 X128.829 Y84.14
