;FLAVOR:Marlin
;TIME:2249
;Filament used: 1.3702m
;Layer height: 0.1
;MINX:86
;MINY:86
;MINZ:0.3
;MAXX:114
;MAXY:114
;MAXZ:20
;Generated with Cura_SteamEngine 4.13.1
M140 S60
M105
M190 S60
M104 S200
M105
M109 S200
M82 ;absolute extrusion mode
G21 ;metric values
G90 ;absolute positioning
M82 ;set extruder to absolute mode
M107 ;start with the fan off
G28 X0 Y0 ;move X/Y to min endstops
G28 Z0 ;move Z to min endstops
G1 Z15.0 F9000 ;move the platform down 15mm
G92 E0 ;zero the extruded length
G1 F200 E3 ;extrude 3mm of feed stock
G92 E0 ;zero the extruded length again
G1 F9000
;Put printing message on LCD screen
M117 Printing...
G92 E0
G92 E0
G1 F1500 E-6.5
;LAYER_COUNT:198
;LAYER:0
M107
G0 F3600 X87.004 Y87.369 Z0.3
;TYPE:SKIRT
G1 F1500 E0
G1 F1800 X87.406 Y86.972 E0.02819
G1 X87.86 Y86.635 E0.0564
G1 X88.357 Y86.366 E0.08459
G1 X88.887 Y86.169 E0.1128
G1 X89.44 Y86.05 E0.14102
G1 X90.218 Y86.002 E0.17991
G1 X90.33 Y86 E0.1855
G1 X109.35 Y86 E1.13441
G1 X110.048 Y86.01 E1.16924
G1 X110.612 Y86.058 E1.19748
G1 X111.162 Y86.185 E1.22564
G1 X111.69 Y86.389 E1.25388
G1 X112.184 Y86.664 E1.28208
G1 X112.633 Y87.007 E1.31027
G1 X113.03 Y87.409 E1.33846
G1 X113.367 Y87.864 E1.36671
G1 X113.635 Y88.361 E1.39488
G1 X113.831 Y88.891 E1.42307
G1 X113.951 Y89.444 E1.4513
G1 X113.998 Y90.218 E1.48999
G1 X114 Y90.33 E1.49558
G1 X114 Y109.314 E2.44269
G1 X113.991 Y110.041 E2.47897
G1 X113.944 Y110.604 E2.50715
G1 X113.818 Y111.155 E2.53535
G1 X113.616 Y111.683 E2.56356
G1 X113.341 Y112.177 E2.59176
G1 X112.999 Y112.627 E2.61996
G1 X112.597 Y113.025 E2.64818
G1 X112.144 Y113.362 E2.67635
G1 X111.647 Y113.632 E2.70457
G1 X111.117 Y113.829 E2.73278
G1 X110.565 Y113.95 E2.76097
G1 X109.782 Y113.998 E2.80011
G1 X109.67 Y114 E2.8057
G1 X90.655 Y114 E3.75436
G1 X89.957 Y113.991 E3.78919
G1 X89.394 Y113.943 E3.81738
G1 X88.843 Y113.817 E3.84558
G1 X88.315 Y113.615 E3.87378
G1 X87.821 Y113.34 E3.90199
G1 X87.371 Y112.998 E3.93019
G1 X86.973 Y112.596 E3.95841
G1 X86.637 Y112.142 E3.98659
G1 X86.367 Y111.645 E4.01481
G1 X86.17 Y111.115 E4.04301
G1 X86.05 Y110.563 E4.0712
G1 X86.001 Y109.766 E4.11103
G1 X86 Y90.62 E5.06623
G1 X86.009 Y89.955 E5.09941
G1 X86.057 Y89.392 E5.1276
G1 X86.183 Y88.841 E5.1558
G1 X86.386 Y88.313 E5.18402
G1 X86.662 Y87.819 E5.21225
G1 X87.004 Y87.369 E5.24045
G0 F3600 X87.397 Y87.531
G1 F1800 X87.794 Y87.171 E5.26719
G1 X88.241 Y86.873 E5.29399
G1 X88.726 Y86.645 E5.32073
G1 X89.24 Y86.492 E5.34749
G1 X89.908 Y86.41 E5.38106
G1 X90.33 Y86.4 E5.40212
G1 X109.345 Y86.4 E6.35078
G1 X110.043 Y86.41 E6.38561
G1 X110.577 Y86.458 E6.41236
G1 X111.098 Y86.584 E6.4391
G1 X111.595 Y86.787 E6.46589
G1 X112.056 Y87.061 E6.49264
G1 X112.471 Y87.4 E6.51938
G1 X112.831 Y87.798 E6.54615
G1 X113.128 Y88.244 E6.57288
G1 X113.356 Y88.73 E6.59966
G1 X113.508 Y89.244 E6.62641
G1 X113.59 Y89.909 E6.65983
G1 X113.6 Y90.33 E6.68084
G1 X113.6 Y109.309 E7.62771
G1 X113.591 Y110.036 E7.66398
G1 X113.544 Y110.57 E7.69073
G1 X113.419 Y111.091 E7.71746
G1 X113.217 Y111.588 E7.74422
G1 X112.944 Y112.05 E7.771
G1 X112.606 Y112.466 E7.79774
G1 X112.209 Y112.827 E7.82451
G1 X111.763 Y113.125 E7.85127
G1 X111.278 Y113.353 E7.87801
G1 X110.764 Y113.507 E7.90478
G1 X110.092 Y113.59 E7.93856
G1 X109.67 Y113.6 E7.95962
G1 X90.661 Y113.6 E8.90798
G1 X89.963 Y113.591 E8.94281
G1 X89.428 Y113.544 E8.9696
G1 X88.907 Y113.418 E8.99634
G1 X88.41 Y113.216 E9.02311
G1 X87.949 Y112.943 E9.04984
G1 X87.533 Y112.604 E9.07661
G1 X87.172 Y112.208 E9.10334
G1 X86.874 Y111.762 E9.1301
G1 X86.646 Y111.276 E9.15689
G1 X86.493 Y110.762 E9.18364
G1 X86.41 Y110.088 E9.21752
G1 X86.4 Y109.658 E9.23898
G1 X86.4 Y90.625 E10.18854
G1 X86.409 Y89.96 E10.22172
G1 X86.457 Y89.426 E10.24847
G1 X86.583 Y88.905 E10.27521
G1 X86.785 Y88.408 E10.30198
G1 X87.058 Y87.947 E10.32871
G1 X87.397 Y87.531 E10.35548
G0 F3600 X87.454 Y88.082
G1 F1800 X87.789 Y87.704 E10.38068
G1 X88.18 Y87.383 E10.40592
G1 X88.617 Y87.128 E10.43116
G1 X89.088 Y86.944 E10.45639
G1 X89.582 Y86.838 E10.48159
G1 X90.24 Y86.801 E10.51447
G1 X109.339 Y86.8 E11.46733
G1 X110.037 Y86.81 E11.50215
G1 X110.54 Y86.857 E11.52736
G1 X111.03 Y86.983 E11.5526
G1 X111.494 Y87.185 E11.57785
G1 X111.92 Y87.457 E11.60306
G1 X112.298 Y87.792 E11.62826
G1 X112.618 Y88.183 E11.65347
G1 X112.873 Y88.62 E11.67871
G1 X113.056 Y89.091 E11.70392
G1 X113.163 Y89.585 E11.72914
G1 X113.199 Y90.24 E11.76186
G1 X113.2 Y109.304 E12.71297
G1 X113.191 Y110.031 E12.74924
G1 X113.145 Y110.534 E12.77444
G1 X113.02 Y111.024 E12.79967
G1 X112.819 Y111.488 E12.8249
G1 X112.548 Y111.915 E12.85013
G1 X112.213 Y112.294 E12.87537
G1 X111.823 Y112.615 E12.90057
G1 X111.387 Y112.871 E12.92579
G1 X110.916 Y113.054 E12.951
G1 X110.422 Y113.162 E12.97623
G1 X109.76 Y113.199 E13.00931
G1 X90.666 Y113.2 E13.96191
G1 X89.968 Y113.191 E13.99674
G1 X89.464 Y113.144 E14.02199
G1 X88.974 Y113.019 E14.04722
G1 X88.51 Y112.818 E14.07245
G1 X88.084 Y112.547 E14.09764
G1 X87.705 Y112.212 E14.12287
G1 X87.384 Y111.821 E14.14811
G1 X87.129 Y111.385 E14.17331
G1 X86.945 Y110.914 E14.19854
G1 X86.838 Y110.42 E14.22376
G1 X86.801 Y109.744 E14.25753
G1 X86.8 Y90.631 E15.21109
G1 X86.809 Y89.966 E15.24427
G1 X86.856 Y89.462 E15.26952
G1 X86.982 Y88.973 E15.29471
G1 X87.183 Y88.509 E15.31994
G1 X87.454 Y88.082 E15.34517
G1 F1500 E8.84517
;MESH:xyzCalibration_cube.stl
G0 F3600 X89.335 Y90.614
G0 X90.614 Y90.614
G0 X109.33 Y109.33
G1 F1500 E15.34517
G0 F3600 X109.4 Y109.4
;TYPE:WALL-INNER
G1 F1800 X90.6 Y109.4 E16.28311
G1 X90.6 Y90.6 E17.22104
G1 X109.4 Y90.6 E18.15898
G1 X109.4 Y109.4 E19.09692
G0 F3600 X109.8 Y109.8
;TYPE:WALL-OUTER
G1 F1800 X90.2 Y109.8 E20.07476
G1 X90.2 Y90.2 E21.05261
G1 X109.8 Y90.2 E22.03046
G1 X109.8 Y109.8 E23.00831
G0 F3600 X109.6 Y109.8
G0 X109.01 Y109.01
;TYPE:SKIN
G1 F1800 X90.99 Y109.01 E23.90733
G1 X90.99 Y90.99 E24.80635
G1 X109.01 Y90.99 E25.70537
G1 X109.01 Y109.01 E26.60439
G0 F3600 X108.829 Y91.293
G1 F1800 X108.706 Y91.17 E26.61307
G0 F3600 X108.14 Y91.17
G1 F1800 X108.829 Y91.858 E26.66165
G0 F3600 X108.829 Y92.424
G1 F1800 X107.574 Y91.17 E26.75016
G0 F3600 X107.009 Y91.17
G1 F1800 X108.829 Y92.99 E26.87857
G0 F3600 X108.829 Y93.555
G1 F1800 X106.443 Y91.17 E27.04688
G0 F3600 X105.877 Y91.17
G1 F1800 X108.829 Y94.121 E27.25513
G0 F3600 X108.829 Y94.687
G1 F1800 X105.312 Y91.17 E27.50327
G0 F3600 X104.746 Y91.17
G1 F1800 X108.829 Y95.252 E27.79131
G0 F3600 X108.829 Y95.818
G1 F1800 X104.18 Y91.17 E28.11929
G0 F3600 X103.615 Y91.17
G1 F1800 X108.829 Y96.384 E28.48716
G0 F3600 X108.829 Y96.949
G1 F1800 X103.049 Y91.17 E28.89494
G0 F3600 X102.483 Y91.17
G1 F1800 X108.829 Y97.515 E29.34265
G0 F3600 X108.829 Y98.081
G1 F1800 X101.918 Y91.17 E29.83026
G0 F3600 X101.352 Y91.17
G1 F1800 X108.829 Y98.647 E30.3578
G0 F3600 X108.829 Y99.212
G1 F1800 X100.786 Y91.17 E30.92524
G0 F3600 X100.221 Y91.17
G1 F1800 X108.829 Y99.778 E31.53258
G0 F3600 X108.829 Y100.344
G1 F1800 X99.655 Y91.17 E32.17986
G0 F3600 X99.089 Y91.17
G1 F1800 X108.829 Y100.909 E32.86703
G0 F3600 X108.829 Y101.475
G1 F1800 X98.524 Y91.17 E33.5941
G0 F3600 X97.958 Y91.17
G1 F1800 X108.829 Y102.041 E34.36111
G0 F3600 X108.829 Y102.606
G1 F1800 X97.392 Y91.17 E35.16802
G0 F3600 X96.826 Y91.17
G1 F1800 X108.829 Y103.172 E36.01486
G0 F3600 X108.829 Y103.738
G1 F1800 X96.261 Y91.17 E36.9016
G0 F3600 X95.695 Y91.17
G1 F1800 X108.829 Y104.303 E37.82824
G0 F3600 X108.829 Y104.869
G1 F1800 X95.129 Y91.17 E38.79481
G0 F3600 X94.564 Y91.17
G1 F1800 X108.829 Y105.435 E39.80129
G0 F3600 X108.829 Y106
G1 F1800 X93.998 Y91.17 E40.84766
G0 F3600 X93.432 Y91.17
G1 F1800 X108.829 Y106.566 E41.93396
G0 F3600 X108.829 Y107.132
G1 F1800 X92.867 Y91.17 E43.06017
G0 F3600 X92.301 Y91.17
G1 F1800 X108.829 Y107.698 E44.22631
G0 F3600 X108.829 Y108.263
G1 F1800 X91.735 Y91.17 E45.43235
G0 F3600 X91.169 Y91.169
G1 F1800 X108.829 Y108.829 E46.67836
G0 F3600 X108.263 Y108.829
G1 F1800 X91.169 Y91.735 E47.88443
G0 F3600 X91.169 Y92.3
G1 F1800 X107.698 Y108.829 E49.05064
G0 F3600 X107.132 Y108.829
G1 F1800 X91.169 Y92.866 E50.17692
G0 F3600 X91.169 Y93.432
G1 F1800 X106.566 Y108.829 E51.26326
G0 F3600 X106 Y108.829
G1 F1800 X91.169 Y93.997 E52.3097
G0 F3600 X91.169 Y94.563
G1 F1800 X105.435 Y108.829 E53.31624
G0 F3600 X104.869 Y108.829
G1 F1800 X91.169 Y95.129 E54.28285
G0 F3600 X91.169 Y95.694
G1 F1800 X104.303 Y108.829 E55.20956
G0 F3600 X103.738 Y108.829
G1 F1800 X91.169 Y96.26 E56.09637
G0 F3600 X91.169 Y96.826
G1 F1800 X103.172 Y108.829 E56.94325
G0 F3600 X102.606 Y108.829
G1 F1800 X91.169 Y97.391 E57.75023
G0 F3600 X91.169 Y97.957
G1 F1800 X102.041 Y108.829 E58.51731
G0 F3600 X101.475 Y108.829
G1 F1800 X91.169 Y98.523 E59.24445
G0 F3600 X91.169 Y99.088
G1 F1800 X100.909 Y108.829 E59.9317
G0 F3600 X100.344 Y108.829
G1 F1800 X91.169 Y99.654 E60.57904
G0 F3600 X91.169 Y100.22
G1 F1800 X99.778 Y108.829 E61.18645
G0 F3600 X99.212 Y108.829
G1 F1800 X91.169 Y100.786 E61.75393
G0 F3600 X91.169 Y101.351
G1 F1800 X98.647 Y108.829 E62.28154
G0 F3600 X98.081 Y108.829
G1 F1800 X91.169 Y101.917 E62.76922
G0 F3600 X91.169 Y102.483
G1 F1800 X97.515 Y108.829 E63.21697
G0 F3600 X96.949 Y108.829
G1 F1800 X91.169 Y103.048 E63.62481
G0 F3600 X91.169 Y103.614
G1 F1800 X96.384 Y108.829 E63.99276
G0 F3600 X95.818 Y108.829
G1 F1800 X91.169 Y104.18 E64.32077
G0 F3600 X91.169 Y104.745
G1 F1800 X95.252 Y108.829 E64.60888
G0 F3600 X94.687 Y108.829
G1 F1800 X91.169 Y105.311 E64.8571
G0 F3600 X91.169 Y105.877
G1 F1800 X94.121 Y108.829 E65.06538
G0 F3600 X93.555 Y108.829
G1 F1800 X91.169 Y106.442 E65.23376
G0 F3600 X91.169 Y107.008
G1 F1800 X92.99 Y108.829 E65.36224
G0 F3600 X92.424 Y108.829
G1 F1800 X91.169 Y107.574 E65.45079
G0 F3600 X91.169 Y108.139
G1 F1800 X91.858 Y108.829 E65.49943
G0 F3600 X91.293 Y108.829
G1 F1800 X91.169 Y108.705 E65.50818
;MESH:NONMESH
G0 F600 X91.169 Y108.705 Z0.4
G0 F3600 X109.33 Y109.33
G0 X109.4 Y109.4
;TIME_ELAPSED:50.817627
;LAYER:1
M106 S255
;TYPE:WALL-INNER
;MESH:xyzCalibration_cube.stl
G1 F2700 X90.6 Y109.4 E65.82083
G1 X90.6 Y90.6 E66.13347
G1 X109.4 Y90.6 E66.44612
G1 X109.4 Y109.4 E66.75876
G0 F5400 X109.8 Y109.8
;TYPE:WALL-OUTER
G1 F1800 X90.2 Y109.8 E67.08471
G1 X90.2 Y90.2 E67.41066
G1 X109.8 Y90.2 E67.73661
G1 X109.8 Y109.8 E68.06256
G0 F5400 X109.6 Y109.8
G0 X109.01 Y109.01
;TYPE:SKIN
G1 F1800 X90.99 Y109.01 E68.36223
G1 X90.99 Y90.99 E68.66191
G1 X109.01 Y90.99 E68.96158
G1 X109.01 Y109.01 E69.26126
G0 F5400 X108.393 Y108.829
G1 F1800 X108.829 Y108.393 E69.27151
G0 F5400 X108.829 Y107.828
G1 F1800 X107.828 Y108.829 E69.29505
G0 F5400 X107.262 Y108.829
G1 F1800 X108.829 Y107.262 E69.33191
G0 F5400 X108.829 Y106.696
G1 F1800 X106.696 Y108.829 E69.38207
G0 F5400 X106.131 Y108.829
G1 F1800 X108.829 Y106.131 E69.44552
G0 F5400 X108.829 Y105.565
G1 F1800 X105.565 Y108.829 E69.52229
G0 F5400 X104.999 Y108.829
G1 F1800 X108.829 Y104.999 E69.61236
G0 F5400 X108.829 Y104.434
G1 F1800 X104.434 Y108.829 E69.71573
G0 F5400 X103.868 Y108.829
G1 F1800 X108.829 Y103.868 E69.8324
G0 F5400 X108.829 Y103.302
G1 F1800 X103.302 Y108.829 E69.96239
G0 F5400 X102.736 Y108.829
G1 F1800 X108.829 Y102.736 E70.10569
G0 F5400 X108.829 Y102.171
G1 F1800 X102.171 Y108.829 E70.26227
G0 F5400 X101.605 Y108.829
G1 F1800 X108.829 Y101.605 E70.43217
G0 F5400 X108.829 Y101.039
G1 F1800 X101.039 Y108.829 E70.61538
G0 F5400 X100.474 Y108.829
G1 F1800 X108.829 Y100.474 E70.81188
G0 F5400 X108.829 Y99.908
G1 F1800 X99.908 Y108.829 E71.02168
G0 F5400 X99.342 Y108.829
G1 F1800 X108.829 Y99.342 E71.2448
G0 F5400 X108.829 Y98.777
G1 F1800 X98.777 Y108.829 E71.48121
G0 F5400 X98.211 Y108.829
G1 F1800 X108.829 Y98.211 E71.73093
G0 F5400 X108.829 Y97.645
G1 F1800 X97.645 Y108.829 E71.99396
G0 F5400 X97.08 Y108.829
G1 F1800 X108.829 Y97.08 E72.27028
G0 F5400 X108.829 Y96.514
G1 F1800 X96.514 Y108.829 E72.55991
G0 F5400 X95.948 Y108.829
G1 F1800 X108.829 Y95.948 E72.86285
G0 F5400 X108.829 Y95.383
G1 F1800 X95.383 Y108.829 E73.17908
G0 F5400 X94.817 Y108.829
G1 F1800 X108.829 Y94.817 E73.50862
G0 F5400 X108.829 Y94.251
G1 F1800 X94.251 Y108.829 E73.85147
G0 F5400 X93.685 Y108.829
G1 F1800 X108.829 Y93.685 E74.20764
G0 F5400 X108.829 Y93.12
G1 F1800 X93.12 Y108.829 E74.57709
G0 F5400 X92.554 Y108.829
G1 F1800 X108.829 Y92.554 E74.95985
G0 F5400 X108.829 Y91.988
G1 F1800 X91.988 Y108.829 E75.35593
G0 F5400 X91.423 Y108.829
G1 F1800 X108.829 Y91.423 E75.76529
G0 F5400 X108.517 Y91.169
G1 F1800 X91.17 Y108.516 E76.17326
G0 F5400 X91.17 Y107.951
G1 F1800 X107.951 Y91.169 E76.56794
G0 F5400 X107.386 Y91.169
G1 F1800 X91.17 Y107.385 E76.94931
G0 F5400 X91.17 Y106.819
G1 F1800 X106.82 Y91.169 E77.31738
G0 F5400 X106.254 Y91.169
G1 F1800 X91.17 Y106.254 E77.67214
G0 F5400 X91.17 Y105.688
G1 F1800 X105.689 Y91.169 E78.01361
G0 F5400 X105.123 Y91.169
G1 F1800 X91.17 Y105.122 E78.34176
G0 F5400 X91.17 Y104.557
G1 F1800 X104.557 Y91.169 E78.65661
G0 F5400 X103.992 Y91.169
G1 F1800 X91.17 Y103.991 E78.95817
G0 F5400 X91.17 Y103.425
G1 F1800 X103.426 Y91.169 E79.24641
G0 F5400 X102.86 Y91.169
G1 F1800 X91.17 Y102.859 E79.52134
G0 F5400 X91.17 Y102.294
G1 F1800 X102.295 Y91.169 E79.78298
G0 F5400 X101.729 Y91.169
G1 F1800 X91.17 Y101.728 E80.03131
G0 F5400 X91.17 Y101.162
G1 F1800 X101.163 Y91.169 E80.26633
G0 F5400 X100.597 Y91.169
G1 F1800 X91.17 Y100.597 E80.48805
G0 F5400 X91.17 Y100.031
G1 F1800 X100.032 Y91.169 E80.69648
G0 F5400 X99.466 Y91.169
G1 F1800 X91.17 Y99.465 E80.89158
G0 F5400 X91.17 Y98.9
G1 F1800 X98.9 Y91.169 E81.07339
G0 F5400 X98.335 Y91.169
G1 F1800 X91.17 Y98.334 E81.2419
G0 F5400 X91.17 Y97.768
G1 F1800 X97.769 Y91.169 E81.3971
G0 F5400 X97.203 Y91.169
G1 F1800 X91.17 Y97.203 E81.539
G0 F5400 X91.17 Y96.637
G1 F1800 X96.638 Y91.169 E81.6676
G0 F5400 X96.072 Y91.169
G1 F1800 X91.17 Y96.071 E81.78289
G0 F5400 X91.17 Y95.506
G1 F1800 X95.506 Y91.169 E81.88488
G0 F5400 X94.941 Y91.169
G1 F1800 X91.17 Y94.94 E81.97356
G0 F5400 X91.17 Y94.374
G1 F1800 X94.375 Y91.169 E82.04894
G0 F5400 X93.809 Y91.169
G1 F1800 X91.17 Y93.809 E82.11102
G0 F5400 X91.17 Y93.243
G1 F1800 X93.244 Y91.169 E82.15979
G0 F5400 X92.678 Y91.169
G1 F1800 X91.17 Y92.677 E82.19526
G0 F5400 X91.17 Y92.111
G1 F1800 X92.112 Y91.169 E82.21741
G0 F5400 X91.546 Y91.169
G1 F1800 X91.17 Y91.546 E82.22627
;MESH:NONMESH
G0 F600 X91.17 Y91.546 Z0.5
G0 F5400 X109.33 Y109.33
G0 X109.4 Y109.4
;TIME_ELAPSED:85.226580
;LAYER:2
;TYPE:WALL-INNER
;MESH:xyzCalibration_cube.stl
G1 F3600 X90.6 Y109.4 E82.53891
G1 X90.6 Y90.6 E82.85156
G1 X109.4 Y90.6 E83.16421
G1 X109.4 Y109.4 E83.47685
G0 F7200 X109.8 Y109.8
;TYPE:WALL-OUTER
G1 F1800 X90.2 Y109.8 E83.8028
G1 X90.2 Y90.2 E84.12875
G1 X109.8 Y90.2 E84.4547
G1 X109.8 Y109.8 E84.78065
G0 F7200 X109.6 Y109.8
G0 X109.01 Y109.01
;TYPE:SKIN
G1 F1800 X90.99 Y109.01 E85.08032
G1 X90.99 Y90.99 E85.38
G1 X109.01 Y90.99 E85.67967
G1 X109.01 Y109.01 E85.97934
G0 F7200 X108.829 Y91.293
G1 F1800 X108.706 Y91.17 E85.98224
G0 F7200 X108.14 Y91.17
G1 F1800 X108.829 Y91.858 E85.99843
G0 F7200 X108.829 Y92.424
G1 F1800 X107.574 Y91.17 E86.02793
G0 F7200 X107.009 Y91.17
G1 F1800 X108.829 Y92.99 E86.07074
G0 F7200 X108.829 Y93.555
G1 F1800 X106.443 Y91.17 E86.12684
G0 F7200 X105.877 Y91.17
G1 F1800 X108.829 Y94.121 E86.19625
G0 F7200 X108.829 Y94.687
G1 F1800 X105.312 Y91.17 E86.27897
G0 F7200 X104.746 Y91.17
G1 F1800 X108.829 Y95.252 E86.37498
G0 F7200 X108.829 Y95.818
G1 F1800 X104.18 Y91.17 E86.48431
G0 F7200 X103.615 Y91.17
G1 F1800 X108.829 Y96.384 E86.60693
G0 F7200 X108.829 Y96.949
G1 F1800 X103.049 Y91.17 E86.74286
G0 F7200 X102.483 Y91.17
G1 F1800 X108.829 Y97.515 E86.89209
G0 F7200 X108.829 Y98.081
G1 F1800 X101.918 Y91.17 E87.05463
G0 F7200 X101.352 Y91.17
G1 F1800 X108.829 Y98.647 E87.23048
G0 F7200 X108.829 Y99.212
G1 F1800 X100.786 Y91.17 E87.41963
G0 F7200 X100.221 Y91.17
G1 F1800 X108.829 Y99.778 E87.62207
G0 F7200 X108.829 Y100.344
G1 F1800 X99.655 Y91.17 E87.83783
G0 F7200 X99.089 Y91.17
G1 F1800 X108.829 Y100.909 E88.06689
G0 F7200 X108.829 Y101.475
G1 F1800 X98.524 Y91.17 E88.30925
G0 F7200 X97.958 Y91.17
G1 F1800 X108.829 Y102.041 E88.56492
G0 F7200 X108.829 Y102.606
G1 F1800 X97.392 Y91.17 E88.83389
